src/Icons/sub.svg

<svg xmlns="http://www.w3.org/2000/svg" height="24" viewBox="0 0 24 24" width="24"><path d="M0 0h24v24H0z" fill="none"/><path d="M16 11c1.66 0 2.99-1.34 2.99-3S17.66 5 16 5c-1.66 0-3 1.34-3 3s1.34 3 3 3zm-8 0c1.66 0 2.99-1.34 2.99-3S9.66 5 8 5C6.34 5 5 6.34 5 8s1.34 3 3 3zm0 2c-2.33 0-7 1.17-7 3.5V19h14v-2.5c0-2.33-4.67-3.5-7-3.5zm8 0c-.29 0-.62.02-.97.05 1.16.84 1.97 1.97 1.97 3.45V19h6v-2.5c0-2.33-4.67-3.5-7-3.5z"/></svg>

<?xml version="1.0" encoding="UTF-8" standalone="no"?>
<svg
   xmlns:dc="http://purl.org/dc/elements/1.1/"
   xmlns:cc="http://creativecommons.org/ns#"
   xmlns:rdf="http://www.w3.org/1999/02/22-rdf-syntax-ns#"
   xmlns:svg="http://www.w3.org/2000/svg"
   xmlns="http://www.w3.org/2000/svg"
   xmlns:sodipodi="http://sodipodi.sourceforge.net/DTD/sodipodi-0.dtd"
   xmlns:inkscape="http://www.inkscape.org/namespaces/inkscape"
   id="SvgjsSvg1001"
   width="24"
   height="24"
   version="1.1"
   sodipodi:docname="sub.svg"
   inkscape:version="1.0.2 (e86c870879, 2021-01-15, custom)">
  <metadata
     id="metadata2657">
    <rdf:RDF>
      <cc:Work
         rdf:about="">
        <dc:format>image/svg+xml</dc:format>
        <dc:type
           rdf:resource="http://purl.org/dc/dcmitype/StillImage" />
        <dc:title></dc:title>
      </cc:Work>
    </rdf:RDF>
  </metadata>
  <sodipodi:namedview
     pagecolor="#ffffff"
     bordercolor="#666666"
     borderopacity="1"
     objecttolerance="10"
     gridtolerance="10"
     guidetolerance="10"
     inkscape:pageopacity="0"
     inkscape:pageshadow="2"
     inkscape:window-width="2621"
     inkscape:window-height="1221"
     id="namedview2655"
     showgrid="false"
     inkscape:zoom="29.698485"
     inkscape:cx="12.098622"
     inkscape:cy="9.9881056"
     inkscape:window-x="0"
     inkscape:window-y="0"
     inkscape:window-maximized="0"
     inkscape:current-layer="SvgjsSvg1001" />
  <defs
     id="SvgjsDefs1002" />
  <g
     id="SvgjsG1008"
     transform="matrix(0.9167,0,0,0.9167,1.018209,0.91719376)">
    <svg
       width="24"
       height="24"
       viewBox="0 0 24 24"
       version="1.1"
       id="svg2651">
      <path
         fill="none"
         d="M 0,0 H 24 V 24 H 0 Z"
         id="path2647" />
      <path
         d="m 16,11 c 1.66,0 2.99,-1.34 2.99,-3 0,-1.66 -1.33,-3 -2.99,-3 -1.66,0 -3,1.34 -3,3 0,1.66 1.34,3 3,3 z M 8,11 C 9.66,11 10.99,9.66 10.99,8 10.99,6.34 9.66,5 8,5 6.34,5 5,6.34 5,8 c 0,1.66 1.34,3 3,3 z m 0,2 C 5.67,13 1,14.17 1,16.5 V 19 H 15 V 16.5 C 15,14.17 10.33,13 8,13 Z m 8,0 c -0.29,0 -0.62,0.02 -0.97,0.05 1.16,0.84 1.97,1.97 1.97,3.45 V 19 h 6 V 16.5 C 23,14.17 18.33,13 16,13 Z"
         fill="#ffffff"
         class="color000 svgShape"
         id="path2649" />
    </svg>
  </g>
</svg>
